X:1
T:Tempo di Minuetto
T:Tempo di Minuetto
T:Gaëtano Pugnani (1731 - 1798) 
T:Fritz Kreisler
C:Fritz Kreisler
%%score 1 { ( 2 5 ) | ( 3 4 ) }
L:1/8
Q:1/4=80
M:3/4
K:D
V:1 treble nm="Violin"
V:2 treble nm="Piano"
V:5 treble 
V:3 bass 
V:4 bass 
V:1
"^Martiale"!f! v!1!d2 D2 !3!f2 | d4 !2!d2 | cd Td7/2 c/4d/4 | e4 e2 | d2 D2 f2 | (T^G4{FG)} A2 | %6
 !1!Bc/d/ c2 B2 | ef/^g/ ae/f/ .e.d | cd/e/ fc/d/ .c.B | %9
"_cresc." A(!tenuto!B/!tenuto!c/) d/B/!<(!c/d/ e/c/d/e/ | %10
 f/d/e/f/ ^g/e/f/g/ !tenuto!a!<)!!tenuto!b |!ff! c'3 a/e/ f^g/a/ |!>(! (TB7/2 A/4B/4)!>)! A2 | %13
!f! !1!d2 D2 f2 | d4 !2!d2 | cd Td7/2 c/4d/4 | e4 e2 | d2 D2 a2 | d4 d2 | cd{ef} (e7/2 .d/) | %20
 d4!p! f2 | ef/^g/ a2 e2 | de/f/ ^g2 d2 | cd/e/ fe/d/ .c.B | A2 (T^G3/2F/4G/4) (.A.F) | %25
"_cresc." ef/^g/ a2 e2 | de/f/ ^g2 d2 | c!<(!d/e/ fd/e/ f^g | a2 (T^g-g/4f/4g/4a/4)!<)! f2 | %29
!ff! vd2 D2 f2 | d4 d2 | cd Td7/2 c/4d/4 | e4 e2 | d2 D2 !1!a2 | d4 d2 | e!1!f/g/ f2 e2 | %36
 ab/c'/ d'a/b/ .a.g | fg/a/ bf/g/ .f.e | d"_molto cresc."e/f/ g/e/f/g/ a/f/g/a/ | %39
"^allargando"[Q:1/4=75] b/g/!1!a/b/ c'/a/!1!b/c'/ !>!!1!d'!>!e' | %40
 !>!f'3 !4!d'/a/ b(!tenuto!c'/!tenuto!d'/) |[Q:1/4=75]{/[A,E]} T[Ae]4({ude)vf} [Ae]7/4u[Dd]/4 | %42
 [Dd]4!p!"^semplice"[Q:1/4=80] u!0!d>.B |:[K:G] .G z .G z (TG2{FG)} | %44
 A2 z2{!2!ABA^G} !1!A/z/!tenuto!B/!tenuto!c/ | (c.!1!F/) z/ vF2 z2 | z2 z2 u!0!d>.B | %47
 (.G!<(!.G.G.G.G.G) | (G<!<)!e) z2!p! (A2 | .!0!d) z (TE4{DE)} |1 D z z2 u!0!d>.B ::2 %51
 D z z2{u!1!FG} F>.G |: A2 z2{u!1!ab} a>.b | c'2 z2{uGA} G>.A | B2 z2{ubc'} b>.c' | %55
 d'2 z2"_cresc." vde | =f3 (!1!B !2!e!0!A) | !2!_e3 (!0!A !0!d"^sul D"G) | %58
 (!3!dc)!>(! ((cB) (!3!BA)) | (G2 F2)!>)!!p! !0!d>.B | .G z .G z (TG2{FG)} | %61
 A2 z2{ABA^G} A/z/!tenuto!B/!tenuto!c/ | (c.F/) z/ vF2 z2 | z2 z2"^risoluto" u!0!d>.B | %64
!<(! (.G.G.G.G.G.G)!<)! |!f! (G<e) z2 (d2 | .g) z!>(! (TA4{GA)}!>)! |1 G z z2{uFG} F>.G :|2 %68
 G z z2 z2 ||[K:D]!f! d2 D2 f2 | d4 d2 | cd Td7/2 c/4d/4 | e4 e2 | d2 D2 f2 | (T^G4{FG)} A2 | %75
 Bc/d/ c2 B2 | ef/^g/ ae/f/ .e.d | cd/e/ fc/d/ .c.B | %78
 A"_cresc."(!tenuto!B/!tenuto!c/) d/B/c/d/ e/c/d/e/ | f/d/e/f/ ^g/e/f/g/ !tenuto!a!tenuto!b | %80
 c'3 a/e/ f^g/a/ | (TB7/2 !0!A/4!3!B/4) A2 |!ff! d2 D2 f2 | d4 d2 | cd Td7/2 c/4d/4 | e4 e2 | %86
 d2 D2{/[DA]} !1!a2 | d4 d2 | e!1!f/g/ f2 e2 | ab/c'/ d'a/b/ .a.g | fg/a/ bf/g/ .f.e | %91
"_molto cresc." de/f/ g/e/f/g/ a/f/!1!g/a/ | %92
"^allargando"[Q:1/4=75] b/g/!1!a/b/ c'/a/!1!b/c'/ !>!!1!d'!>!e' | %93
 !>!f'3 !4!d'/a/ b(!tenuto!c'/!tenuto!d'/) |[Q:1/4=70]{/[A,E]} T[Ae]4({ude)vf} [Ae]7/4u[Dd]/4 | %95
 [Dd]4 z2 |] %96
V:2
!f! [DF]2 x2 [DA!courtesy!^c]2 | [DB]4 [DGB]2 | [EA]2 AG/F/ GF | [A,E]4 [CGA]2 | [DFA]2 x2 [DA]2 | %5
 [B,^G]4 [A,CA]2 | [FAB]2 [EAc]2 [E^GB]2 | [EAe]2 [A,EA]2 [B,EB]2 | [CEc]2 [CFc]2 ^G2 | %9
"_cresc." (A2 (A^G)) ((BA) | (cB) [EB])[E^G][EFA][DEGB] |!ff! [CEAc]2 [A,EA]2 [A,B,FA]2 | %12
!>(! [DEA]2 [DE^G]2 [CEA]2!>)! |!f! [DF]2 x2 [DAc]2 | [DB]4 [DGB]2 | [EA]2 AG/F/ GF | %16
 [A,E]4 [A,CG]2 | [A,DF]2 x2 [DAc]2 | [DB]4 [DGB]2 | A/G/F [B,DE]2 x2 | x4 z2 | %21
!p! [E,A,E]2 A2 ef/^g/ | [da]2 ^G2 de/f/ | ^g2 (c2- cB) | [CFA]2 [B,C^E^G]2 [A,CFA]2 | %25
 [E,A,E]2"_cresc." A2 ef/^g/ | [da]2 ^G2 de/f/ | ^g2!<(! [CFc]2 [DFB]2 | %28
 [CFA]2 [B,C^E^G]2 [A,CF]2!<)! |!ff! [A,DA]2 x2 [DAc]2 | A2 GF [B,DGB]2 | [A,EA]2 AG/F/ GF | %32
 [A,E]4 [A,CGA]2 | [A,DFA]2 [F,A,DF]2 [DAcd]2 | A2 GF [B,DGB]2 | [B,EGB]2 [CF]2 [A,CE]2 | %36
 [A,DA]2 [DAd]2 [EAe]2 | [FAf]2 [B,FB]2 [CA]2 | D2"_molto cresc." (([B,DG][A,C] [A,A]2 | %39
 [B,B]2 [CGc]))[CEA][DAB][CGAc] | [DFAd]2 [Ada]2 [DEBd]2 | [G,A,DGA]2 [GAdega]2 [A,CGA]2 | %42
 [DFAd]2 z2 z2 |:[K:G] z2!p! .[B,DG] z .[B,EG] z | [A,EG]4 z2 | [CDF]4 z2 | (D.G,/) z/ G,2 z2 | %47
"_cresc." z2 .[B,EG] z .[B,EG] z | [A,EG]2 z2!p! A>G | ([DF]d/) z/ .E.E.E.E |1 .[F,D] z z2 z2 ::2 %51
 .[F,D] z z2{DE} D>.E |: F2 z2{fg} f>g | a2 z2{B,D} B,>.D | G2 z2{ga} g>.a | b2 z2 z2 | %56
"_cresc." [D^Gd]2 ([DGB]2 [^CA^c]2) | [F=c]2 ([CFA]2 [B,GB]2) | ([EG]2!>(! [DF]2 [CE]2) | %59
 D4!>)! z2 | z2!p! .[B,DG] z .[B,EG] z | [A,EG]4 z2 | [CF]4 x2 | (D.G,/) z/ G,2 z2 | %64
 z2!<(! .[B,EG] z .[B,EG] z!<)! | [A,EG] z z2!f! d>c | (Bg/) z/!>(! .A.A.A.A!>)! |1 %67
 .G z z2{DE} D>.E :|2 .[B,DG] z z2 z2 ||[K:D]!f! [DF]2 x2 [DAc]2 | [DB]4 [DGB]2 | [EA]2 AG/F/ GF | %72
 [A,E]4 [CGA]2 | [DFA]2 x2 [DA]2 | [B,^G]4 [A,CA]2 | [FAB]2 [EAc]2 [E^GB]2 | %76
 [EAe]2 [A,EA]2 [B,EB]2 | [CEc]2 [CFc]2 ^G2 |"_cresc." (A2 (A^G)) ((BA) | %79
 (cB) [EB])[E^G][EFA][DEGB] | [CEAc]2 [A,EA]2 [A,B,FA]2 | [DEA]2 [DE^G]2 [CEA]2 | %82
!ff! [A,DF]2 x2 [DAc]2 | A2 GF [B,DGB]2 | [A,EA]2 AG/F/ GF | [A,E]4 [A,CGA]2 | %86
 [A,DFA]2 [F,A,DF]2 [DAcd]2 | A2 GF [B,DGB]2 | [B,EGB]2 [CF]2 [A,CE]2 | [A,DA]2 [DAd]2 [EAe]2 | %90
 [FAf]2 [B,FB]2 [Cc]2 | [Dd]2"_molto cresc." (([B,DG][A,C] [A,A]2 | %92
 [B,B]2 [CGc]))[CEA][DAB][B,EB] | [DFBd]2 [Ada]2 [DEBd]2 | [G,A,DEGA]2 [GAdega]2 [A,CGA]2 | %95
 z2 [dfad'] z z2 |] %96
V:3
 [D,A,]2 [F,D]2 F,2 | G,4 E,2 | [A,,A,]2 A,2 G,2 | [C,G,]4 A,2 | [D,A,]2 [F,D]2 F,2 | E,4 F,2 | %6
 D,2 E,2 D,2 | C,2 F,2 ^G,2 | A,2 D,2 E,2 | (F,2 (F,E,)) (([C,E,-]2 | %10
 [D,E,-]2 [B,,E,]))[D,E,][C,E,][B,,E,] | [A,,E,]2 [C,,C,]2 [D,,D,]2 | [E,,E,]2 [E,,E,]2 [A,,E,]2 | %13
 [D,A,]2 [F,D]2 F,2 | G,4 E,2 | [A,,A,]2 A,2 G,2 | [C,G,]2 [A,,,A,,]2 A,,2 | D,2 [F,D]2 [F,,F,]2 | %18
 [G,,G,]4 [E,,E,]2 | [A,,A,][B,,F,] G,,2 [G,A,C]2 | [F,A,D]4 z2 | [C,,A,,]2 [C,A,]2 [CE]2 | %22
 [B,F]2 [E,B,]2 [DE]2 | [A,E]2 (D,2 [B,,F,]2) | C,2 C,2 [F,,C,]2 | [C,,A,,]2 [C,A,]2 [CE]2 | %26
 [B,F]2 [E,B,]2 [DE]2 | [A,E]2 [D,A,]2 [B,,F,]2 | C,2 C,2 [F,,C,]2 | %29
 [F,,A,,D,]2 [D,F,]2 [F,,D,A,]2 | A,2 G,F, [E,,B,,G,]2 | [A,,G,]2 A,G,/F,/ G,F, | %32
 [C,G,]2 [A,,,A,,]2 [A,,G,]2 | [D,F,]2 [D,,A,,]2 [F,,D,A,]2 | A,2 G,F, [G,,D,G,]2 | %35
 [E,,E,]2 A,2 G,2 | F,2 B,2 C2 | D2 [G,,D,G,]2 A,G, | F,2 ((E,,G,, [F,,A,,-]2 | %39
 [G,,A,,-]2 [E,,A,,]))[G,,A,,][F,,A,,][E,,A,,] | [D,,A,,]2 [F,,,D,,F,,]2 [G,,,G,,]2 | %41
 [A,,,A,,]2 [A,DE]2 [A,,G,]2 | [D,,A,,F,]2 [D,,,D,,]2 z2 |:[K:G] z2 .G, z .E, z | C,4 z2 | %45
 D,4{A,B,A,^G,} A,/z/!tenuto!B,/!tenuto!C/ | D,4 z2 | z2 .E, z .D, z | ^C,2 z2 [C,A,]2 | %49
 [D,A,]2 .[G,,,G,,] z .[A,,,A,,] z |1 .[D,,A,,] z .[D,,,D,,] z z2 ::2 %51
 .[D,,A,,] z .[D,,,D,,] z z2 |: z2 [D,,D,]2 z2 | z2 [D,,D,]2 z2 | z2 [D,,D,]2 z2 | z2 [D,,D,]2 z2 | %56
 [D,,,D,,]2 [D,,,D,,]2 [D,,,D,,]2 | [D,,,D,,]2 [D,,,D,,]2 [D,,,D,,]2 | %58
 [D,,,D,,]2 [D,,,D,,]2 [D,,,D,,]2 | [D,,,D,,]4 z2 | z2 .G, z .E, z | C,4 z2 | %62
 [D,A,]4{A,B,A,^G,} A,/z/B,/C/ | D,4 z2 | z2 .E, z .D, z | C, z z2 [F,D]2 | %66
 [G,D]2 .[C,,C,] z .[D,,D,] z |1 .[G,,D,] z .[G,,,G,,] z z2 :|2 .[G,,D,] z .[G,,,G,,] z z2 || %69
[K:D] [D,A,]2 [F,D]2 F,2 | G,4 E,2 | [A,,A,]2 A,2 G,2 | [C,G,]4 A,2 | [D,A,]2 [F,D]2 [B,,F,]2 | %74
 E,4 F,2 | D,2 E,2 D,2 | C,2 F,2 ^G,2 | A,2 D,2 E,2 | (F,2 (F,E,)) (([C,E,-]2 | %79
 [D,E,-]2 [B,,E,]))[D,E,][C,E,][B,,E,] | [A,,E,]2 [C,,C,]2 [D,,D,]2 | [E,,E,]2 [E,,E,]2 [A,,E,]2 | %82
 [D,F,]2 [D,F,]2 [F,,D,A,]2 | A,2 G,F, [E,,B,,G,]2 | [A,,G,]2 A,G,/F,/ G,F, | %85
 [C,G,]2 [A,,,A,,]2 [A,,G,]2 | [D,F,]2 [D,,A,,]2 [F,,D,A,]2 | A,2 G,F, [G,,D,G,]2 | %88
 [E,,E,]2 A,2 G,2 | F,2 B,2 C2 | D2 [G,,D,G,]2 A,G, | F,2 ((E,,G,, [F,,A,,-]2 | %92
"_allargando" [G,,A,,-]2 [E,,A,,]))[G,,A,,][F,,A,,][E,,G,,] | %93
 [B,,,F,,B,,]2 [F,,,D,,F,,]2 [G,,,G,,]2 |"_violinworker 05/2019" [A,,,A,,]2 [A,DE]2 [A,,G,]2 | %95
 z2 [F,A,DF] z z2 |] %96
V:4
 x2 [D,,A,,]2 x2 | x6 | x2 B,,4 | z2 [A,,,A,,]2 x2 | x2 [D,,A,,]2 x2 | x6 | x6 | x6 | x6 | %9
 x2 B,,2 x2 | x6 | x6 | x6 | x2 [D,,A,,]2 x2 | x6 | x2 B,,4 | x6 | x2 [D,,A,,]2 x2 | x6 | x4 A,,2 | %20
 [D,,D,]2 [D,,,D,,]2 x2 | x6 | x6 | x6 | x6 | x6 | x6 | x6 | x6 | x2 [D,,A,,]2 x2 | [G,,D,]4 x2 | %31
 x2 [B,,D,]2 B,,2 | x6 | x6 | [G,,D,]4 x2 | x6 | x6 | x4 A,,2 | [B,,D,]2 x4 | x6 | x6 | x6 | x6 |: %43
[K:G] x6 | x6 | x4 [C,D,F,]2 | [B,,,G,,]4 x2 | x6 | x6 | x6 |1 x6 ::2 x6 |: x6 | x6 | x6 | x6 | %56
 x6 | x6 | x6 | x6 | x6 | x6 | x4 [C,D,F,]2 | [B,,,G,,]4 x2 | x6 | x6 | x6 |1 x6 :|2 x6 || %69
[K:D] x2 [D,,A,,]2 x2 | x6 | x2 B,,4 | z2 [A,,,A,,]2 x2 | x2 [D,,A,,]2 x2 | x6 | x6 | x6 | x6 | %78
 x2 B,,2 x2 | x6 | x6 | x6 | x2 [D,,A,,]2 x2 | [G,,D,]4 x2 | x2 [B,,D,]2 B,,2 | x6 | x6 | %87
 [G,,D,]4 x2 | x6 | x6 | x4 A,,2 | B,,2 x4 | x6 | x6 | x6 | [D,,A,,]4 x2 |] %96
V:5
 x6 | A2 GF x2 | x2 D4 | x6 | x6 | (E2 D2) x2 | x6 | x6 | x4 ED | ([CF]2 D2) E2 | F2 x4 | x6 | x6 | %13
 x6 | A2 GF x2 | x2 D4 | x6 | x6 | A2 GF x2 | CD x4 | x6 | x2 EF/^G/ A2 | x2 DE/F/ ^G2 | %23
 c2 ([CF]2 [DF]2) | x6 | x2 EF/^G/ A2 | x2 DE/F/ ^G2 | c2 x4 | x6 | x6 | [B,DB]4 x2 | x2 D2 D2 | %32
 x6 | x6 | [DBd]4 x2 | x6 | x6 | x4 FE | x4 (ED) | (FE) x4 | x6 | x6 | x6 |:[K:G] x6 | x6 | x6 | %46
 x6 | x6 | x4 E2 | x2 .[B,D] z .[G,^C] z |1 x6 ::2 x6 |: x6 | x6 | x6 | x6 | x6 | x6 | x6 | %59
 (B,2 A,2) x2 | x6 | x6 | x6 | x6 | x6 | x4 A2 | G2 .[EG] z .[CF] z |1 .[B,D] x5 :|2 x6 || %69
[K:D] x6 | A2 GF x2 | x2 D4 | x6 | x6 | (E2 D2) x2 | x6 | x6 | x4 ED | ([A,C]2 D2) E2 | F2 x4 | %80
 x6 | x6 | x6 | [B,DB]4 x2 | x2 D2 D2 | x6 | x6 | [DBd]4 x2 | x6 | x6 | x4 FE | x4 (ED) | (FE) x4 | %93
 x6 | x6 | [F,A,DF]4 x2 |] %96

